modules/cstl-admin/grunt/src/img/raster-selected.svg

<svg xmlns="http://www.w3.org/2000/svg" width="872" height="72" viewBox="0 0 872 72"><style type="text/css"><![CDATA[
	.st0{opacity:0.8;fill:#1D1D1B;enable-background:new;} .st1{fill:#575757;enable-background:new;} .st2{fill:#5B5B5B;}
]]></style><path class="st0" d="M-.9 0h872v72h-872z"/><path class="st1" d="M547.8 32.1h7.5v7.7h-7.5zm0 15.5h7.5v7.7h-7.5zm7.5-7.7h7.5v7.7h-7.5zm7.5 7.7h7.5v7.7h-7.5zm-7.5-23.2h7.5v7.7h-7.5zm7.5 7.7h7.5v7.7h-7.5zm7.5 7.8h7.5v7.7h-7.5zm-30.1 15.4h7.5v7.7h-7.5zm15.1 0h7.5v7.7h-7.5zm15 0h7.5v7.7h-7.5zm7.5-7.7h7.5v7.7h-7.5zm7.6 7.7h7.5v7.7h-7.5zm0-15.4h7.5v7.7h-7.5zm-7.6-7.8h7.5v7.7h-7.5zm-7.5-7.7h7.5v7.7h-7.5zm-7.5-7.7h7.5v7.7h-7.5zm0-15.4h7.5v7.7h-7.5zm7.5 7.7h7.5v7.7h-7.5zm7.5-7.7h7.5v7.7h-7.5zm7.6 7.7h7.5v7.7h-7.5zm-7.6 7.7h7.5v7.7h-7.5zm7.6 7.7h7.5v7.7h-7.5zm7.5-23.1h7.5v7.7h-7.5zm7.5 7.7h7.5v7.7h-7.5zm7.5 7.7h7.5v7.7h-7.5zm-7.5 7.7h7.5v7.7h-7.5zm7.5 7.7h7.5v7.7h-7.5zm-7.5 7.8h7.5v7.7h-7.5zm7.5 7.7h7.5v7.7h-7.5zm-15-30.9h7.5v7.7h-7.5zm0 15.4h7.5v7.7h-7.5zm0 15.5h7.5v7.7h-7.5zm22.6-7.7h7.5v7.7h-7.5zm7.5 7.7h7.5v7.7h-7.5zm-7.5-23.2h7.5v7.7h-7.5zm7.5 7.7h7.5v7.7h-7.5zm7.5 7.8h7.5v7.7h-7.5zm-30.1 15.4h7.5v7.7h-7.5zm15.1 0h7.5v7.7h-7.5zm15 0h7.5v7.7h-7.5zm7.5-7.7h7.5v7.7h-7.5zm7.5 7.7h7.5v7.7h-7.5zm0-15.4h7.5v7.7h-7.5zm-7.5-7.8h7.5v7.7h-7.5zm-7.5-7.7h7.5v7.7h-7.5zm-7.5-7.7h7.5v7.7h-7.5zm-7.5-7.7h7.5v7.7h-7.5zm-7.6-7.7h7.5v7.7h-7.5zm15.1 0h7.5v7.7h-7.5zm7.5 7.7h7.5v7.7h-7.5zm7.5-7.7h7.5v7.7h-7.5zm7.5 7.7h7.5v7.7h-7.5zm-7.5 7.7h7.5v7.7h-7.5zm7.5 7.7h7.5v7.7h-7.5zm7.6-23.1h7.5v7.7h-7.5zm7.5 7.7h7.5v7.7h-7.5zm7.5 7.7h7.5v7.7h-7.5zm-7.5 7.7h7.5v7.7h-7.5zm7.5 7.7h7.5v7.7h-7.5zm-7.5 7.8h7.5v7.7h-7.5zm7.5 7.7h7.5v7.7h-7.5zm-15-30.9h7.5v7.7h-7.5zm0 15.4h7.5v7.7h-7.5zm0 15.5h7.5v7.7h-7.5zm22.5-7.7h7.5v7.7h-7.5zm7.5 7.7h7.5v7.7h-7.5zm-7.5-23.2h7.5v7.7h-7.5zm7.5 7.7h7.5v7.7h-7.5zm7.6 7.8h7.5v7.7h-7.5zm-30.1 15.4h7.5v7.7h-7.5zm15 0h7.5v7.7h-7.5zm15.1 0h7.5v7.7h-7.5zm7.5-7.7h7.5v7.7h-7.5zm7.5 7.7h7.5v7.7h-7.5zm0-15.4h7.5v7.7h-7.5zm-7.5-7.8h7.5v7.7h-7.5zm-7.5-7.7h7.5v7.7h-7.5zm-7.6-7.7h7.5v7.7h-7.5zm-7.5-7.7h7.5v7.7h-7.5zm-7.5-7.7h7.5v7.7h-7.5zm15 0h7.5v7.7h-7.5zm7.6 7.7h7.5v7.7h-7.5zm7.5-7.7h7.5v7.7h-7.5zm7.5 7.7h7.5v7.7h-7.5zm-7.5 7.7h7.5v7.7h-7.5zm7.5 7.7h7.5v7.7h-7.5zm7.5-23.1h7.5v7.7h-7.5zm7.5 7.7h7.5v7.7h-7.5zm7.6 7.7h7.5v7.7h-7.5zm-7.6 7.7h7.5v7.7h-7.5zm7.6 7.7h7.5v7.7h-7.5zm-7.6 7.8h7.5v7.7h-7.5zm7.6 7.7h7.5v7.7h-7.5zm-15.1-30.9h7.5v7.7h-7.5zm0 15.4h7.5v7.7h-7.5zm0 15.5h7.5v7.7h-7.5zm22.6-7.7h7.5v7.7h-7.5zm7.5 7.7h7.5v7.7h-7.5zm-7.5-23.2h7.5v7.7h-7.5zm7.5 7.7h7.5v7.7h-7.5zm7.5 7.8h7.5v7.7h-7.5zm-30.1 15.4h7.5v7.7h-7.5zm15.1 0h7.5v7.7h-7.5zm15 0h7.5v7.7h-7.5zm7.5-7.7h7.5v7.7h-7.5zm7.6 7.7h7.5v7.7h-7.5zm0-15.4h7.5v7.7h-7.5zm-7.6-7.8h7.5v7.7h-7.5zm-7.5-7.7h7.5v7.7h-7.5zm-7.5-7.7h7.5v7.7h-7.5zm-7.5-7.7h7.5v7.7h-7.5zm-7.5-7.7h7.5v7.7h-7.5zm15 0h7.5v7.7h-7.5zm7.5 7.7h7.5v7.7h-7.5zm7.5-7.7h7.5v7.7h-7.5zm7.6 7.7h7.5v7.7h-7.5zm-7.6 7.7h7.5v7.7h-7.5zm7.6 7.7h7.5v7.7h-7.5zm7.5-23.1h7.5v7.7h-7.5zm7.5 7.7h7.5v7.7h-7.5zm7.5 7.7h7.5v7.7h-7.5zm-7.5 7.7h7.5v7.7h-7.5zm7.5 7.7h7.5v7.7h-7.5zm-7.5 7.8h7.5v7.7h-7.5zm7.5 7.7h7.5v7.7h-7.5zm-15-30.9h7.5v7.7h-7.5zm0 15.4h7.5v7.7h-7.5zm0 15.5h7.5v7.7h-7.5zm22.5-7.7h7.5v7.7h-7.5zm7.6 7.7h7.5v7.7h-7.5zm-7.6-23.2h7.5v7.7h-7.5zm7.6 7.7h7.5v7.7h-7.5zm7.5 7.8h7.5v7.7h-7.5zm-30.1 15.4h7.5v7.7h-7.5zm15 0h7.5v7.7h-7.5zm15.1 0h7.5v7.7h-7.5zm7.5-7.7h7.5v7.7h-7.5zm7.5 7.7h7.5v7.7h-7.5zm0-15.4h7.5v7.7h-7.5zm-7.5-7.8h7.5v7.7h-7.5zm-7.5-7.7h7.5v7.7h-7.5zm-7.5-7.7h7.5v7.7h-7.5zm-7.6-7.7h7.5v7.7h-7.5zm-7.5-7.7h7.5v7.7h-7.5zm15.1 0h7.5v7.7h-7.5zm7.5 7.7h7.5v7.7h-7.5zm7.5-7.7h7.5v7.7h-7.5zm7.5 7.7h7.5v7.7h-7.5zm-7.5 7.7h7.5v7.7h-7.5zm7.5 7.7h7.5v7.7h-7.5zm7.5-7.7h7.5v7.7h-7.5zm0 15.4h7.5v7.7h-7.5zm0 15.5h7.5v7.7h-7.5zm7.6-7.7h7.5v7.7h-7.5zm7.5 7.7h7.5v7.7h-7.5zm-7.5-23.2h7.5v7.7h-7.5zm7.5 7.7h7.5v7.7h-7.5zm7.5 7.8h7.5v7.7h-7.5zm-15 15.4h7.5v7.7h-7.5zm15 0h7.5v7.7h-7.5zm7.5-7.7h7.5v7.7h-7.5zm0-15.5h7.5v7.7h-7.5zm-7.5-7.7h7.5v7.7h-7.5zm-7.5-7.7h7.5v7.7h-7.5zm-7.5-7.7h7.5v7.7h-7.5zm-7.6-7.7h7.5v7.7h-7.5zm15.1 0h7.5v7.7h-7.5zm7.5 7.7h7.5v7.7h-7.5zm7.5-7.7h7.5v7.7h-7.5zm0 15.4h7.5v7.7h-7.5zm-315.8 46.3h7.5v7.7h-7.5zm15 0h7.5v7.7h-7.5zm15 0h7.5v7.7h-7.5zm30.1 0h7.5v7.7h-7.5zm-15 0h7.5v7.7h-7.5zm30.1 0h7.5v7.7h-7.5zm15 0h7.5v7.7h-7.5zm30.1 0h7.5v7.7h-7.5zm-15 0h7.5v7.7h-7.5zm30 0h7.5v7.7h-7.5zm15.1 0h7.5v7.7h-7.5zm30.1 0h7.5v7.7h-7.5zm-15.1 0h7.5v7.7h-7.5zm30.1 0h7.5v7.7h-7.5zm15 0h7.5v7.7h-7.5zm30.1 0h7.5v7.7h-7.5zm-15 0h7.5v7.7h-7.5zm30.1 0h7.5v7.7h-7.5zm15 0h7.5v7.7h-7.5zm15 0h7.5v7.7h-7.5zm15.1 0h7.5v7.7h-7.5zm15 0h7.5v7.7h-7.5z"/><path class="st2" d="M574.4 0l-36.8 72-538.5-.2.1-71.6z"/></svg>

<svg xmlns="http://www.w3.org/2000/svg" width="872" height="72" viewBox="0 0 872 72"><style type="text/css"><![CDATA[
	.st0{opacity:0.8;fill:#1D1D1B;enable-background:new;} .st1{fill:#575757;enable-background:new;} .st2{fill:#5B5B5B;}
]]></style><path class="st0" d="M-.9 0h872v72H-.9z"/><path class="st1" d="M547.8 32.1h7.5v7.7h-7.5zM547.8 47.6h7.5v7.7h-7.5zM555.3 39.9h7.5v7.7h-7.5zM562.8 47.6h7.5v7.7h-7.5zM555.3 24.4h7.5v7.7h-7.5zM562.8 32.1h7.5v7.7h-7.5zM570.3 39.9h7.5v7.7h-7.5zM540.2 55.3h7.5V63h-7.5zM555.3 55.3h7.5V63h-7.5zM570.3 55.3h7.5V63h-7.5zM577.8 47.6h7.5v7.7h-7.5zM585.4 55.3h7.5V63h-7.5zM585.4 39.9h7.5v7.7h-7.5zM577.8 32.1h7.5v7.7h-7.5zM570.3 24.4h7.5v7.7h-7.5zM562.8 16.7h7.5v7.7h-7.5zM562.8 1.3h7.5V9h-7.5zM570.3 9h7.5v7.7h-7.5zM577.8 1.3h7.5V9h-7.5zM585.4 9h7.5v7.7h-7.5zM577.8 16.7h7.5v7.7h-7.5zM585.4 24.4h7.5v7.7h-7.5zM592.9 1.3h7.5V9h-7.5zM600.4 9h7.5v7.7h-7.5zM607.9 16.7h7.5v7.7h-7.5zM600.4 24.4h7.5v7.7h-7.5zM607.9 32.1h7.5v7.7h-7.5zM600.4 39.9h7.5v7.7h-7.5zM607.9 47.6h7.5v7.7h-7.5zM592.9 16.7h7.5v7.7h-7.5zM592.9 32.1h7.5v7.7h-7.5zM592.9 47.6h7.5v7.7h-7.5zM615.5 39.9h7.5v7.7h-7.5zM623 47.6h7.5v7.7H623zM615.5 24.4h7.5v7.7h-7.5zM623 32.1h7.5v7.7H623zM630.5 39.9h7.5v7.7h-7.5zM600.4 55.3h7.5V63h-7.5zM615.5 55.3h7.5V63h-7.5zM630.5 55.3h7.5V63h-7.5zM638 47.6h7.5v7.7H638zM645.5 55.3h7.5V63h-7.5zM645.5 39.9h7.5v7.7h-7.5zM638 32.1h7.5v7.7H638zM630.5 24.4h7.5v7.7h-7.5zM623 16.7h7.5v7.7H623zM615.5 9h7.5v7.7h-7.5zM607.9 1.3h7.5V9h-7.5zM623 1.3h7.5V9H623zM630.5 9h7.5v7.7h-7.5zM638 1.3h7.5V9H638zM645.5 9h7.5v7.7h-7.5zM638 16.7h7.5v7.7H638zM645.5 24.4h7.5v7.7h-7.5zM653.1 1.3h7.5V9h-7.5zM660.6 9h7.5v7.7h-7.5zM668.1 16.7h7.5v7.7h-7.5zM660.6 24.4h7.5v7.7h-7.5zM668.1 32.1h7.5v7.7h-7.5zM660.6 39.9h7.5v7.7h-7.5zM668.1 47.6h7.5v7.7h-7.5zM653.1 16.7h7.5v7.7h-7.5zM653.1 32.1h7.5v7.7h-7.5zM653.1 47.6h7.5v7.7h-7.5zM675.6 39.9h7.5v7.7h-7.5zM683.1 47.6h7.5v7.7h-7.5zM675.6 24.4h7.5v7.7h-7.5zM683.1 32.1h7.5v7.7h-7.5zM690.7 39.9h7.5v7.7h-7.5zM660.6 55.3h7.5V63h-7.5zM675.6 55.3h7.5V63h-7.5zM690.7 55.3h7.5V63h-7.5zM698.2 47.6h7.5v7.7h-7.5zM705.7 55.3h7.5V63h-7.5zM705.7 39.9h7.5v7.7h-7.5zM698.2 32.1h7.5v7.7h-7.5zM690.7 24.4h7.5v7.7h-7.5zM683.1 16.7h7.5v7.7h-7.5zM675.6 9h7.5v7.7h-7.5zM668.1 1.3h7.5V9h-7.5zM683.1 1.3h7.5V9h-7.5zM690.7 9h7.5v7.7h-7.5zM698.2 1.3h7.5V9h-7.5zM705.7 9h7.5v7.7h-7.5zM698.2 16.7h7.5v7.7h-7.5zM705.7 24.4h7.5v7.7h-7.5zM713.2 1.3h7.5V9h-7.5zM720.7 9h7.5v7.7h-7.5zM728.3 16.7h7.5v7.7h-7.5zM720.7 24.4h7.5v7.7h-7.5zM728.3 32.1h7.5v7.7h-7.5zM720.7 39.9h7.5v7.7h-7.5zM728.3 47.6h7.5v7.7h-7.5zM713.2 16.7h7.5v7.7h-7.5zM713.2 32.1h7.5v7.7h-7.5zM713.2 47.6h7.5v7.7h-7.5zM735.8 39.9h7.5v7.7h-7.5zM743.3 47.6h7.5v7.7h-7.5zM735.8 24.4h7.5v7.7h-7.5zM743.3 32.1h7.5v7.7h-7.5zM750.8 39.9h7.5v7.7h-7.5zM720.7 55.3h7.5V63h-7.5zM735.8 55.3h7.5V63h-7.5zM750.8 55.3h7.5V63h-7.5zM758.3 47.6h7.5v7.7h-7.5zM765.9 55.3h7.5V63h-7.5zM765.9 39.9h7.5v7.7h-7.5zM758.3 32.1h7.5v7.7h-7.5zM750.8 24.4h7.5v7.7h-7.5zM743.3 16.7h7.5v7.7h-7.5zM735.8 9h7.5v7.7h-7.5zM728.3 1.3h7.5V9h-7.5zM743.3 1.3h7.5V9h-7.5zM750.8 9h7.5v7.7h-7.5zM758.3 1.3h7.5V9h-7.5zM765.9 9h7.5v7.7h-7.5zM758.3 16.7h7.5v7.7h-7.5zM765.9 24.4h7.5v7.7h-7.5zM773.4 1.3h7.5V9h-7.5zM780.9 9h7.5v7.7h-7.5zM788.4 16.7h7.5v7.7h-7.5zM780.9 24.4h7.5v7.7h-7.5zM788.4 32.1h7.5v7.7h-7.5zM780.9 39.9h7.5v7.7h-7.5zM788.4 47.6h7.5v7.7h-7.5zM773.4 16.7h7.5v7.7h-7.5zM773.4 32.1h7.5v7.7h-7.5zM773.4 47.6h7.5v7.7h-7.5zM795.9 39.9h7.5v7.7h-7.5zM803.5 47.6h7.5v7.7h-7.5zM795.9 24.4h7.5v7.7h-7.5zM803.5 32.1h7.5v7.7h-7.5zM811 39.9h7.5v7.7H811zM780.9 55.3h7.5V63h-7.5zM795.9 55.3h7.5V63h-7.5zM811 55.3h7.5V63H811zM818.5 47.6h7.5v7.7h-7.5zM826 55.3h7.5V63H826zM826 39.9h7.5v7.7H826zM818.5 32.1h7.5v7.7h-7.5zM811 24.4h7.5v7.7H811zM803.5 16.7h7.5v7.7h-7.5zM795.9 9h7.5v7.7h-7.5zM788.4 1.3h7.5V9h-7.5zM803.5 1.3h7.5V9h-7.5zM811 9h7.5v7.7H811zM818.5 1.3h7.5V9h-7.5zM826 9h7.5v7.7H826zM818.5 16.7h7.5v7.7h-7.5zM826 24.4h7.5v7.7H826zM833.5 16.7h7.5v7.7h-7.5zM833.5 32.1h7.5v7.7h-7.5zM833.5 47.6h7.5v7.7h-7.5zM841.1 39.9h7.5v7.7h-7.5zM848.6 47.6h7.5v7.7h-7.5zM841.1 24.4h7.5v7.7h-7.5zM848.6 32.1h7.5v7.7h-7.5zM856.1 39.9h7.5v7.7h-7.5zM841.1 55.3h7.5V63h-7.5zM856.1 55.3h7.5V63h-7.5zM863.6 47.6h7.5v7.7h-7.5zM863.6 32.1h7.5v7.7h-7.5zM856.1 24.4h7.5v7.7h-7.5zM848.6 16.7h7.5v7.7h-7.5zM841.1 9h7.5v7.7h-7.5zM833.5 1.3h7.5V9h-7.5zM848.6 1.3h7.5V9h-7.5zM856.1 9h7.5v7.7h-7.5zM863.6 1.3h7.5V9h-7.5zM863.6 16.7h7.5v7.7h-7.5zM547.8 63h7.5v7.7h-7.5zM562.8 63h7.5v7.7h-7.5zM577.8 63h7.5v7.7h-7.5zM607.9 63h7.5v7.7h-7.5zM592.9 63h7.5v7.7h-7.5zM623 63h7.5v7.7H623zM638 63h7.5v7.7H638zM668.1 63h7.5v7.7h-7.5zM653.1 63h7.5v7.7h-7.5zM683.1 63h7.5v7.7h-7.5zM698.2 63h7.5v7.7h-7.5zM728.3 63h7.5v7.7h-7.5zM713.2 63h7.5v7.7h-7.5zM743.3 63h7.5v7.7h-7.5zM758.3 63h7.5v7.7h-7.5zM788.4 63h7.5v7.7h-7.5zM773.4 63h7.5v7.7h-7.5zM803.5 63h7.5v7.7h-7.5zM818.5 63h7.5v7.7h-7.5zM833.5 63h7.5v7.7h-7.5zM848.6 63h7.5v7.7h-7.5zM863.6 63h7.5v7.7h-7.5z"/><path class="st2" d="M574.4 0l-36.8 72-538.5-.2L-.8.2z"/></svg>
